X: 20631
Q: "Moderate."
M: 6/8
L: 1/8
K: G
(F2d) (E2c) | (D2B) (C2A) | BGF EBA | (EF/G/E/F/) D2G |\
(F2d) (E2c) | (D2B) (C2A) | BGF EBA | D2z z2E |\
(F2d) (E2c) | D3 EFG | G2G GAD | d3 (dc/B/c/A/) |\
d3 (dc/B/c/A/) | dBd g3 | EAB dcB | d3 (dc/B/c/A) |\
d3 (dc/B/c/A/) | dBd g3 | EAB dcA | G3- G2 |]


